packages/components/icons/assets/Wallet.svg

<svg viewBox="0 0 24 24" xmlns="http://www.w3.org/2000/svg" data-title="Wallet" fill="currentColor" stroke="none">
  <path d="M8.88785 13.8107C8.88727 13.8943 8.89135 13.9779 8.90008 14.061 8.90787 14.1401 8.91565 14.2203 8.92455 14.2993H11.8516C11.9295 14.2992 12.0064 14.3169 12.0761 14.3509 12.1458 14.3848 12.2064 14.4342 12.2531 14.495 12.2997 14.5558 12.3312 14.6264 12.3449 14.7012 12.3586 14.7759 12.3542 14.8527 12.332 14.9255 12.3017 15.0268 12.2385 15.1158 12.1518 15.1791 12.0652 15.2423 11.9598 15.2766 11.8516 15.2766H9.2059C9.43289 15.7812 9.80431 16.2115 10.2757 16.5159 10.7464 16.8188 11.2998 16.9766 11.8638 16.9688 12.2959 16.971 12.7231 16.8788 13.1138 16.699 13.3746 16.5769 13.6168 16.4202 13.8333 16.2332 13.9384 16.1457 14.0741 16.1011 14.2121 16.1088 14.3501 16.1165 14.4798 16.1758 14.574 16.2744 14.6245 16.3256 14.6638 16.3864 14.6894 16.4529 14.715 16.5195 14.7264 16.5905 14.7228 16.6615 14.7193 16.7325 14.7009 16.802 14.6688 16.8659 14.6367 16.9297 14.5916 16.9865 14.5361 17.0327 14.2236 17.2932 13.8746 17.5092 13.4997 17.6741 12.9844 17.8954 12.427 18.0084 11.8638 18.0056 10.9922 18.0186 10.1392 17.7597 9.42943 17.2667 8.72301 16.7791 8.19906 16.0804 7.93701 15.2766H7.1174C6.98438 15.2766 6.85681 15.2251 6.76275 15.1334 6.66869 15.0418 6.61585 14.9175 6.61585 14.788 6.61585 14.6584 6.66869 14.5341 6.76275 14.4425 6.85681 14.3508 6.98438 14.2993 7.1174 14.2993H7.71682C7.70792 14.1802 7.70236 14.0827 7.69791 14.0133 7.69346 13.944 7.69791 13.8747 7.69791 13.8107 7.69791 13.7468 7.69791 13.6797 7.69791 13.6081 7.69791 13.5366 7.70792 13.4413 7.71682 13.3221H7.1174C6.98438 13.3221 6.85681 13.2707 6.76275 13.179 6.66869 13.0874 6.61585 12.9631 6.61585 12.8335 6.61585 12.7039 6.66869 12.5797 6.76275 12.488 6.85681 12.3964 6.98438 12.3449 7.1174 12.3449H7.93701C8.2001 11.5401 8.72371 10.84 9.42943 10.3493 10.1376 9.85247 10.9912 9.5911 11.8638 9.60397 12.4125 9.60104 12.9558 9.70875 13.4596 9.92032 13.7992 10.0631 14.1175 10.2496 14.406 10.475 14.4628 10.52 14.5094 10.576 14.543 10.6394 14.5766 10.7027 14.5964 10.7722 14.6012 10.8433 14.606 10.9145 14.5957 10.9859 14.5709 11.053 14.5461 11.1201 14.5074 11.1815 14.4572 11.2334 14.3645 11.3301 14.2378 11.3891 14.1023 11.3988 13.9669 11.4084 13.8327 11.3679 13.7265 11.2854 13.5183 11.1273 13.2912 10.9942 13.0504 10.8889 12.6775 10.7248 12.273 10.6402 11.8638 10.6408 11.3009 10.6336 10.7488 10.7914 10.2791 11.0936 9.80566 11.4011 9.43402 11.8357 9.20924 12.3449H12.4421C12.52 12.3449 12.5969 12.3625 12.6667 12.3965 12.7364 12.4305 12.797 12.4798 12.8438 12.5406 12.8905 12.6014 12.9221 12.6719 12.9359 12.7467 12.9498 12.8214 12.9456 12.8982 12.9236 12.9711 12.8929 13.0724 12.8295 13.1613 12.7427 13.2245 12.6559 13.2878 12.5505 13.322 12.4421 13.3221H8.92788C8.91899 13.4023 8.9112 13.4814 8.90342 13.5605 8.8936 13.6436 8.8884 13.7271 8.88785 13.8107ZM21.1107 14.0141H20.657C20.5243 14.0141 20.397 13.9627 20.3031 13.8713 20.2093 13.7799 20.1566 13.6559 20.1566 13.5266 20.1566 13.3973 20.2093 13.2733 20.3031 13.1819 20.397 13.0904 20.5243 13.0391 20.657 13.0391H21.1107C21.2435 13.0391 21.3708 13.0904 21.4646 13.1819 21.5585 13.2733 21.6112 13.3973 21.6112 13.5266 21.6112 13.6559 21.5585 13.7799 21.4646 13.8713 21.3708 13.9627 21.2435 14.0141 21.1107 14.0141Z"/>
  <path d="M21.8981 11.1846V5.33432C21.8981 4.28777 21.0396 3.38423 19.9653 3.38423H14.9609L14.6051 2.62586C14.5448 2.49766 14.4591 2.3823 14.353 2.28638C14.2469 2.19045 14.1225 2.11586 13.9867 2.06685C13.851 2.01785 13.7067 1.99539 13.562 2.00078C13.4174 2.00617 13.2753 2.0393 13.1438 2.09826L10.2713 3.38423H2.00176C1.47451 3.39555 0.972074 3.60464 0.59916 3.96792C0.226245 4.33121 0.0116171 4.82068 0 5.33432V20.1171C0 21.1636 0.929706 22 2.00176 22H19.9653C20.2195 22.0011 20.4714 21.9532 20.7064 21.859C20.9414 21.7648 21.155 21.6261 21.3347 21.451C21.5144 21.276 21.6567 21.0679 21.7534 20.839C21.8501 20.61 21.8993 20.3647 21.8981 20.1171V15.868C22.4801 15.7917 23.0139 15.5123 23.4004 15.0816C23.787 14.651 24 14.0984 24 13.5263C24 12.9542 23.787 12.4016 23.4004 11.971C23.0139 11.5403 22.4801 11.2609 21.8981 11.1846ZM13.5575 2.98771C13.5698 2.98265 13.583 2.98004 13.5964 2.98004C13.6098 2.98004 13.623 2.98265 13.6353 2.98771C13.6479 2.99219 13.6594 2.99911 13.6692 3.00805C13.6789 3.01699 13.6867 3.02776 13.692 3.03971L15.249 6.35161H6.03753L13.5575 2.98771ZM1.82605 4.38636L8.08266 4.36361L4.62184 5.91068L3.62096 6.34403H1.03869V5.15231C1.04101 4.94968 1.12474 4.756 1.27193 4.61282C1.41912 4.46963 1.61805 4.38833 1.82605 4.38636ZM20.8428 20.22C20.8407 20.4228 20.7571 20.6168 20.6099 20.7602C20.4627 20.9036 20.2636 20.985 20.0554 20.987H1.82605C1.61786 20.985 1.41877 20.9036 1.27155 20.7602C1.12432 20.6168 1.04072 20.4228 1.03869 20.22V7.32774H18.6786C18.8114 7.32774 18.9387 7.27638 19.0325 7.18495C19.1264 7.09352 19.1791 6.96952 19.1791 6.84022C19.1791 6.71092 19.1264 6.58692 19.0325 6.49549C18.9387 6.40406 18.8114 6.3527 18.6786 6.3527H16.3555L15.4291 4.38094H19.9253C20.3557 4.38094 20.7738 4.91505 20.7738 5.33323V6.59971L20.8283 11.1629H19.4738C19.0875 11.1632 18.7171 11.3128 18.444 11.5789C18.1708 11.845 18.0173 12.2058 18.017 12.5821V14.4726C18.0175 14.8488 18.1713 15.2093 18.4444 15.4752C18.7175 15.741 19.0877 15.8905 19.4738 15.8908H20.8417L20.8428 20.22ZM21.5768 14.9114H19.4749C19.3542 14.9114 19.2384 14.8648 19.1529 14.7817C19.0674 14.6986 19.0192 14.5859 19.0189 14.4683V12.5821C19.0192 12.4645 19.0674 12.3518 19.1529 12.2688C19.2384 12.1857 19.3542 12.139 19.4749 12.139H21.5768C21.7673 12.1339 21.9569 12.1659 22.1344 12.2334C22.312 12.3008 22.4739 12.4022 22.6105 12.5317C22.7471 12.6611 22.8557 12.8159 22.9299 12.9869C23.0041 13.158 23.0423 13.3417 23.0423 13.5274C23.0423 13.713 23.0041 13.8968 22.9299 14.0678C22.8557 14.2389 22.7471 14.3937 22.6105 14.5231C22.4739 14.6525 22.312 14.754 22.1344 14.8214C21.9569 14.8889 21.7673 14.9209 21.5768 14.9157V14.9114Z"/>
</svg>

<svg viewBox="0 0 24 24" xmlns="http://www.w3.org/2000/svg" data-title="Wallet" fill="currentColor" stroke="none">
  <path d="m8.89,13.81c0,.08,0,.17.01.25,0,.08.02.16.02.24h2.93c.08,0,.15.02.22.05.07.03.13.08.18.14.05.06.08.13.09.21.01.07,0,.15-.01.22-.03.1-.09.19-.18.25-.09.06-.19.1-.3.1h-2.65c.23.5.6.93,1.07,1.24.47.3,1.02.46,1.59.45.43,0,.86-.09,1.25-.27.26-.12.5-.28.72-.47.11-.09.24-.13.38-.12.14,0,.27.07.36.17.05.05.09.11.12.18.03.07.04.14.03.21,0,.07-.02.14-.05.2-.03.06-.08.12-.13.17-.31.26-.66.48-1.04.64-.52.22-1.07.33-1.64.33-.87.01-1.72-.25-2.43-.74-.71-.49-1.23-1.19-1.49-1.99h-.82c-.13,0-.26-.05-.35-.14-.09-.09-.15-.22-.15-.35s.05-.25.15-.35c.09-.09.22-.14.35-.14h.6c0-.12-.01-.22-.02-.29,0-.07,0-.14,0-.2v-.2c0-.07.01-.17.02-.29h-.6c-.13,0-.26-.05-.35-.14-.09-.09-.15-.22-.15-.35s.05-.25.15-.35c.09-.09.22-.14.35-.14h.82c.26-.8.79-1.5,1.49-2,.71-.5,1.56-.76,2.43-.75.55,0,1.09.1,1.6.32.34.14.66.33.95.55.06.05.1.1.14.16.03.06.05.13.06.2,0,.07,0,.14-.03.21-.02.07-.06.13-.11.18-.09.1-.22.16-.35.17-.14,0-.27-.03-.38-.11-.21-.16-.44-.29-.68-.4-.37-.16-.78-.25-1.19-.25-.56,0-1.11.15-1.58.45-.47.31-.85.74-1.07,1.25h3.23c.08,0,.15.02.22.05.07.03.13.08.18.14.05.06.08.13.09.21.01.07,0,.15-.01.22-.03.1-.09.19-.18.25-.09.06-.19.1-.3.1h-3.51c0,.08-.02.16-.02.24,0,.08-.02.17-.02.25Zm12.22.2h-.45c-.13,0-.26-.05-.35-.14-.09-.09-.15-.22-.15-.34s.05-.25.15-.34c.09-.09.22-.14.35-.14h.45c.13,0,.26.05.35.14.09.09.15.22.15.34s-.05.25-.15.34c-.09.09-.22.14-.35.14Z"/>
  <path d="m21.9,11.18v-5.85c0-1.05-.86-1.95-1.93-1.95h-5l-.36-.76c-.06-.13-.15-.24-.25-.34-.11-.1-.23-.17-.37-.22-.14-.05-.28-.07-.42-.07-.14,0-.29.04-.42.1l-2.87,1.29H2c-.53.01-1.03.22-1.4.58-.37.36-.59.85-.6,1.37v14.78c0,1.05.93,1.88,2,1.88h17.96c.25,0,.51-.05.74-.14s.45-.23.63-.41c.18-.18.32-.38.42-.61.1-.23.15-.47.14-.72v-4.25c.58-.08,1.12-.36,1.5-.79.39-.43.6-.98.6-1.56s-.21-1.12-.6-1.56c-.39-.43-.92-.71-1.5-.79ZM13.56,2.99s.03,0,.04,0,.03,0,.04,0c.01,0,.02.01.03.02,0,0,.02.02.02.03l1.56,3.31H6.04l7.52-3.36ZM1.83,4.39l6.26-.02-3.46,1.55-1,.43H1.04v-1.19c0-.2.09-.4.23-.54.15-.14.35-.22.55-.23Zm19.02,15.83c0,.2-.09.4-.23.54s-.35.22-.55.23H1.83c-.21,0-.41-.08-.55-.23-.15-.14-.23-.34-.23-.54V7.33h17.64c.13,0,.26-.05.35-.14.09-.09.15-.22.15-.34s-.05-.25-.15-.34c-.09-.09-.22-.14-.35-.14h-2.32l-.93-1.97h4.5c.43,0,.85.53.85.95v1.27l.05,4.56h-1.35c-.39,0-.76.15-1.03.42-.27.27-.43.63-.43,1v1.89c0,.38.15.74.43,1,.27.27.64.42,1.03.42h1.37v4.33Zm.73-5.31h-2.1c-.12,0-.24-.05-.32-.13-.09-.08-.13-.2-.13-.31v-1.89c0-.12.05-.23.13-.31.09-.08.2-.13.32-.13h2.1c.19,0,.38.03.56.09.18.07.34.17.48.3.14.13.25.28.32.46.07.17.11.35.11.54s-.04.37-.11.54c-.07.17-.18.33-.32.46s-.3.23-.48.3c-.18.07-.37.1-.56.09h0Z"/>
</svg>
